X:624
T:Rideout's Revels
C:Colin Hume, 1997
L:1/4
M:2/2
S:Colin Hume's website,  colinhume.com  - chords can also be printed below the stave.
H:For the dance by Ann Higley.
Q:1/2=112
K:G
P:A
|: G/A/ | "G"BB "/"Bd | "D/F#"AA "/"Ad | "Em"GF/G/ "D"AF | "G"G2 "D"DG/A/ |\
"G"BB "/"Bd | "D"AA "/"Ad | "C"GF/G/ "D7"AF | "G"G3 :|
P:B
|: g/f/ | "C"ee "/"fg | "G/B"d3/c/ "/"Bc/B/ | "A7"AA "/"a3/g/ | "D"f2- "D7"fe/f/ |\
"G"gG "C"ce | "D"d/e/d/c/ "Em"BA/B/ | "Am"cE "D7"F3/G/ | "G"G3 :|

